X:1
T:Dare to Do Right!
T:Dare to Do Right!
T:William Fiddian Moulton (1835-1898)
T:George Lansing Taylor, 1861
T:Public Domain Courtesy of the Cyber Hymnal™
T:Public Domain Courtesy of the Cyber Hymnal™
C:William Fiddian Moulton (1835-1898)
Z:Public Domain
Z:Courtesy of the Cyber Hymnal™
%%score ( 1 2 ) ( 3 4 )
L:1/8
Q:1/4=95
M:4/4
K:C
V:1 treble 
V:2 treble 
V:3 bass 
V:4 bass 
V:1
 [Gc]2 [^Fc][Fc] (c2 BA) | [FB]2 [FA][FA] [EG]4 | [CF]2 [CE][CE] [CA]2 [CG][CE] | %3
w: 1.~Dare to be right! * *|dare to be true!|You have a work that no|
w: 2.~Dare to be right! * *|dare to be true!|O- ther men’s fail- ures can|
w: 3.~Dare to be right! * *|dare to be true!|God, who cre- at- ed you,|
w: 4.~Dare to be right! * *|dare to be true!|Keep the great judg- ment seat|
w: 5.~Dare to be right! * *|dare to be true!|Je- sus, your Sav- ior, will|
 [CE]2 [B,D][CE] D4 | [Cc][Gc] [^Fc]2 [=Fc]2 [FB][FA] | [FB]2 [FA][FA] [EG]4 | %6
w: o- ther can do;|Do it so brave- ly, so|kind- ly, so well,|
w: ne- ver save you;|Stand by your con- science, your|hon- or, your faith,|
w: cares for you, too;|Trea- sures the tears that His|stri- ving ones shed,|
w: al- ways in view;|Look at your work as you’ll|look at it then—|
w: car- ry you through;|Ci- ty, and man- sion, and|throne all in sight,|
 [DG]2 [D^F][DG] [GB]2 [Gc][GB] | [GA][GA] [^Fd]2 (d2 G2) ||"^Refrain" [CEG]2 z2 [EGc]2 z2 | %9
w: An- gels will has- ten the|sto- ry to tell. *||
w: Stand like a he- ro, and|bat- tle till death. *||
w: Counts and pro- tects ev- ery|hair of your head. *|Dare, dare,|
w: Scanned by Je- ho- vah, and|an- gels, and men. *||
w: Can you not dare to be|true and do right? *||
 c2 BA [FGB]4 | [B,DF]2 z2 [DFB]2 z2 | B2 AE [B,DFG]4 | [Ge]2 [Gf][Ge] A4 | [Fd]2 [Fe][Fd] G4 | %14
w: |||||
w: |||||
w: dare to do right!|Dare, dare,|dare to be true!|Dare to do right,|dare to be true!|
w: |||||
w: |||||
 [CA]2 [F^G][FA] [FB]2 [Fc][Fd] | [Ec]8 |] %16
w: ||
w: ||
w: Dare to do right, to be|true!|
w: ||
w: ||
V:2
 x4 =F4 | x8 | x8 | x4 (C2 B,2) | x8 | x8 | x8 | x4 =F4 || x8 | [FG]4 x4 | x8 | [CE]4 x4 | %12
 x4 (G2 ^F2) | x4 (F2 E2) | x8 | x8 |] %16
V:3
 [E,G,]2 [^D,A,][D,A,] ([C,A,]2 ^DC) | [D,B,]2 [G,,B,][G,,B,] C4 | %2
 [A,C]2 [G,C][G,C] F,2 [E,G,][C,G,] | [A,,G,]2 [D,^F,][D,F,] G,4 | %4
 [E,G,][E,G,] [^D,A,]2 [=D,A,]2 [G,,D][G,,C] | [D,B,]2 [G,,B,][G,,B,] [C,C]2 [^C,_B,]2 | %6
 [D,B,]2 [D,A,][D,B,] [D,D]2 [D,E][D,D] | [D,C][D,C] [D,C]2 (C2 B,2) || [C,G,]2 G,,2 [C,C]2 G,,2 | %9
 [D,C]2 B,A, B,4 | [D,G,]2 G,,2 [D,B,]2 G,,2 | [C,B,]2 A,E, G,4 | [C,G,]2 [A,,^C][A,,C] [D,=C]4 | %13
 [B,,G,]2 [G,,B,][G,,B,] [C,_B,]4 | [F,A,]2 [D,C][D,C] [G,D]2 [G,A,][G,B,] | [C,C]8 |] %16
V:4
 x6 G,,2 | x4 C,2 E,2 | x4 F,2 x2 | x4 (G,,2 G,=F,) | x8 | x8 | x8 | x4 G,,4 || x8 | %9
 x2 G,,2 D,2 G,,2 | x8 | x2 G,,2 D,2 G,,2 | x8 | x8 | x8 | x8 |] %16

